X:1
T:Philip Doddridge, published 1766 (Hymn 69)   66. 86. (S. M.)
T:G Major Oliver Holden, 1796
T:Pilgrim's Song No copyright. Transcribed from The Union Harmony, 1796.
%%score [ 1 2 3 4 ]
L:1/8
M:4/4
K:G
V:1 treble nm="Treble" snm="Tr."
V:2 treble nm="Counter" snm="C."
V:3 treble-8 nm="Tenor" snm="T."
V:4 bass nm="Bass" snm="B."
V:1
 B4 | (d2 B2) (G2 B2) | A4 G4 | F6 A2 | (B2 G2) (F2 A2) | G4 [FA]4 | [GB]8 | z4 B4 | %8
w: 1.~Now|let * our *|voi- ces|join, To|form * a *|sac- red|song;|Ye|
 (d2 c2) (B2 c2) | d4 (c2 de) | (d2 c2) (B2 A2) | B4 z2 A2 | (B2 G2) (G2 B2) | (A2 c2) (B2 A2) | %14
w: pil- * grims *|in Je- * *|ho- * vah's *|ways With|mu- * sic *|pass * a- *|
 A8 ||[M:2/4] B2 Bd | dB BA | BG AA | G3 A | BB AA | GB dB | Bd dB | %22
w: long.|See Sa- lem's|gol- den spires, In|beau- teous pro- spect|rise, And|brigh- ter crowns than|mor- tals wear, Which|spar- kle through the|
 c3"^And    brighter  crowns  than  mortals  wear," z | z4 | z2 z d | Bd dB | cd dc | BB Bc | %28
w: skies;||And|brigh- ter crowns than|mor- tals wear, And|brigh- ter crowns than|
 dc BA | GB cc | B4 |] %31
w: mor- tals wear, Which|spar- kle through the|skies.|
V:2
 G4 | (G2 D2) (D2 G2) | F4 G4 | D6 D2 | D4 D4 | D4 D4 | D8 | z4 D4 | G4 G4 | G4 F4 | G4 D4 | %11
w: 2.~How|straight * the *|path ap-|pears! How|op- en,|and how|fair!|No|lurk- ing|spies to|trap our|
 D4 z2 D2 | D4 (D2 G2) | F4 E4 | D8 ||[M:2/4] G2 GG | GG GF | GE FF | G3 D | EG FD | DD GG | %21
w: feet, No|fierce de- *|stro- yer|there,|But flow'rs of|par- a- dise In|rich pro- fu- sion|spring, The|Sun of glo- ry|gilds the path, And|
 DG GG | G3 G | DD GF | EE DG | GG GG | GD B,D | DG GF | DG GF | GD DD | D4 |] %31
w: dear com- pan- ions|sing; The|Sun of glo- ry|gilds the path, The|Sun of glo- ry|gilds the path, The|Sun of glo- ry|gilds the path, And|dear com- pa- nions|sing.|
V:3
 d4 | (B2 G2) (B2 d2) | c4 B4 | A6 A2 | (G2 B2) (A2 c2) | B4 A4 | G8 | z4 G4 | (B2 A2) (G2 A2) | %9
w: 3.~All|hon- * or *|to His|name Who|drew * the *|shi- ning|trace;|To|Him, * who *|
 B4 (A2 Bc) | (B2 A2) (G2 F2) | G4 z2 F2 | (G2 B2) (B2 d2) | (d2 e2) (d2 ^c2) | d8 || %15
w: leads the * *|wand- * erers *|on, And|cheers * them *|with * His *|grace.|
[M:2/4] d2 dB | Bd Gd | ec Ac | e3 f | gd dc | BG GD | GB Bd | %22
w: Re- duce the|na- tions, Lord; Teach|all the kings Thy|ways; That|earth's full choir the|notes may swell, And|heav'n re- sound the|
 e3"^That earth's full choir the    notes  may swell," z | z4 | z2 z B | dB Bd | ef ga | %27
w: praise;||That|earth's full choir the|notes may swell, That|
 gd d e/f/ | g/f/e dc | BG AA | G4 |] %31
w: earth's full choir the *|notes * may swell, And|heav'n re- sound the|praise.|
V:4
 G,4 | G,4 G,4 | D,4 D,4 | D,6 D,2 | G,4 F,4 | G,4 D,4 | G,,8 | z4 G,4 | G,4 G,4 | G,4 D,4 | %10
 D,4 D,4 | G,6 D,2 | G,4 G,4 | A,4 A,,4 | D,8 ||[M:2/4] G,2 G,G, | B,G, G,F, | E,E, D,D, | C,3 D, | %19
 G,G, D,D, | G,G, G,G, | G,G, G,B, | C3 C | B,G, G,F, | E,E, D,G, | G,G, G,G, | G,D, G,F, | %27
 G,B, B,G, | G,G, G,D, | G,G, D,D, | G,4 |] %31

